/* XPM */
static char *_52b2a2c420c45c1aa59ef4d14a6a66dJLlSc2C6juxAeiNo[] = {
/* columns rows colors chars-per-pixel */
"25 25 2 1 ",
"  c gray6",
". c gray23",
/* pixels */
"                         ",
"                         ",
"  .....................  ",
"  .....................  ",
"  .....................  ",
"  .....................  ",
"  .....................  ",
"  .....................  ",
"  .....................  ",
"  .....................  ",
"  .....................  ",
"  .....................  ",
"  .....................  ",
"  .....................  ",
"  .....................  ",
"  .....................  ",
"  .....................  ",
"  .....................  ",
"  .....................  ",
"  .....................  ",
"  .....................  ",
"  .....................  ",
"  .....................  ",
"                         ",
"                         "
};
