/* XPM */
static char *_e63bbfe9aa84a58bcb3b3c88283692eT6dmmP0sow8JCg78[] = {
/* columns rows colors chars-per-pixel */
"50 50 42 1 ",
"  c None",
". c #321600",
"X c #331600",
"o c #321700",
"O c #331700",
"+ c #321601",
"@ c #331601",
"# c #321701",
"$ c #331701",
"% c #3C1C00",
"& c #3D1C00",
"* c #3C1D00",
"= c #3D1D00",
"- c #3C1C01",
"; c #3D1C01",
": c #3C1D01",
"> c #3D1D01",
", c #421E00",
"< c #431E00",
"1 c #421F00",
"2 c #431F00",
"3 c #421E01",
"4 c #431E01",
"5 c #421F01",
"6 c #431F01",
"7 c #4A2202",
"8 c #4B2202",
"9 c #4A2302",
"0 c #4B2302",
"q c #4A2203",
"w c #4B2203",
"e c #4A2303",
"r c #4B2303",
"t c #FE30F4",
"y c #FF30F4",
"u c #FE31F4",
"i c #FF31F4",
"p c #FE30F5",
"a c #FF30F5",
"s c #FE31F5",
"d c #FF31F5",
"f c #FFFFFE",
/* pixels */
"                                                  ",
"                                                  ",
"                                                  ",
"                                                  ",
"                                                  ",
"                                                  ",
"          ssssss                          XXXXXX  ",
"          ssssss                          XXXXXX  ",
"        ssssffssss            XXXXXXXXXXXX999999XX",
"        ssssffssss            XXXXXXXXXXXX999999XX",
"        ssssssssss      XXXXXX99999999999999XXXX44",
"        ssssssssss      XXXXXX99999999999999XXXX44",
"        ssssssssssXXXXXX4444444444999999XXXX444444",
"        ssssssssssXXXXXX4444444444999999XXXX444444",
"  XXXXXX44ssssss44ss4444444444449999XXXX44444444ss",
"  XXXXXX44ssssss44ss4444444444449999XXXX44444444ss",
"XXXX4444ss444444ss44444444449999XXXX44444444ssss44",
"XXXX4444ss444444ss44444444449999XXXX44444444ssss44",
"XX;;XXXX44ssssss444444444444XXXX44444444ssss444444",
"XX;;XXXX44ssssss444444444444XXXX44444444ssss444444",
"XX;;;;;;XXXXXXXXXXXX4444XXXX44444444ssss4444444444",
"XX;;;;;;XXXXXXXXXXXX4444XXXX44444444ssss4444444444",
"XX;;;;;;444444449999XXXX44444444ssss444444444444ss",
"XX;;;;;;444444449999XXXX44444444ssss444444444444ss",
"XX;;;;;;44444444449999XX4444ssss444444444444ssss44",
"XX;;;;;;44444444449999XX4444ssss444444444444ssss44",
"XX;;;;;;44444444444499XXssss444444444444ssss444444",
"XX;;;;;;44444444444499XXssss444444444444ssss444444",
"XX;;;;;;44444444444499XX444444444444ssss44444444XX",
"XX;;;;;;44444444444499XX444444444444ssss44444444XX",
"XX;;;;;;44444444444499XX44444444ssss44444444XXXX  ",
"XX;;;;;;44444444444499XX44444444ssss44444444XXXX  ",
"XX;;;;;;44444444444499XX4444ssss44444444XXXXXX    ",
"XX;;;;;;44444444444499XX4444ssss44444444XXXXXX    ",
"XX;;;;;;44444444444499XXssss44444444XXXXXX        ",
"XX;;;;;;44444444444499XXssss44444444XXXXXX        ",
"XX;;;;;;44444444444499XX44444444XXXXXX            ",
"XX;;;;;;44444444444499XX44444444XXXXXX            ",
"XX;;;;;;44444444444499XX4444XXXXXX                ",
"XX;;;;;;44444444444499XX4444XXXXXX                ",
"  XX;;;;44444444444499XXXXXXXX                    ",
"  XX;;;;44444444444499XXXXXXXX                    ",
"    XX;;44444444444499XXXX                        ",
"    XX;;44444444444499XXXX                        ",
"      XXXXXXXXXXXXXXXXXX                          ",
"      XXXXXXXXXXXXXXXXXX                          ",
"                                                  ",
"                                                  ",
"                                                  ",
"                                                  "
};
