/* XPM */
static char *_440cbdf2ae5433af276dc02e074e445FsVFcD2oFVq0wOwY[] = {
/* columns rows colors chars-per-pixel */
"23 23 33 1 ",
"  c None",
". c black",
"X c #010000",
"o c #000100",
"O c #010100",
"+ c #000001",
"@ c #010001",
"# c #000101",
"$ c #010101",
"% c #FE30F4",
"& c #FF30F4",
"* c #FE31F4",
"= c #FF31F4",
"- c #FE30F5",
"; c #FF30F5",
": c #FE31F5",
"> c #FF31F5",
", c #848484",
"< c #858484",
"1 c #848584",
"2 c #858584",
"3 c #848485",
"4 c #858485",
"5 c #848585",
"6 c gray52",
"7 c #D8D8D8",
"8 c #D9D8D8",
"9 c #D8D9D8",
"0 c #D9D9D8",
"q c #D8D8D9",
"w c #D9D8D9",
"e c #D8D9D9",
"r c gray85",
/* pixels */
"  .....  .....  .....  ",
" .99999..99999..99999. ",
".999999969999969999999.",
".999999966999669999999.",
".9999999666>6669999999.",
".9999996666>6666999999.",
".9999966699>9966699999.",
" .9996666999996666999. ",
" .6666669999999666666. ",
".99666999>>9>>99966699.",
".9996699>>>>>>>9966999.",
".999>>>9>>>>>>>9>>>999.",
".99966999>>>>>99966999.",
".996669999>>>999966699.",
" .666666999>999666666. ",
" .9996666999996666999. ",
".9999966699>9966699999.",
".9999996666>6666999999.",
".9999999666>6669999999.",
".999999966999669999999.",
".999999969999969999999.",
" .99999..99999..99999. ",
"  .....  .....  .....  "
};
