/* XPM */
static char *_a4a013f9fd24f70d453b58198aa21e9i40iGHoIaVBNklxZ[] = {
/* columns rows colors chars-per-pixel */
"25 25 163 2 ",
"   c #0E0F0F",
".  c #100F0F",
"X  c #10100E",
"o  c #0F161D",
"O  c #0E181C",
"+  c #131212",
"@  c #181918",
"#  c #0F1A21",
"$  c #0E1C2B",
"%  c #131B20",
"&  c #0F202D",
"*  c #152636",
"=  c #112538",
"-  c #2B2E37",
";  c #27313D",
":  c #2B363C",
">  c #273A3F",
",  c #2C3A3D",
"<  c #333536",
"1  c #343A36",
"2  c #363B3B",
"3  c #393B3B",
"4  c #0E2D42",
"5  c #0F2E4B",
"6  c #1F384F",
"7  c #223746",
"8  c #2B3745",
"9  c #2B3A44",
"0  c #273A49",
"q  c #2A3A4A",
"w  c #333B43",
"e  c #363E4C",
"r  c #2B3C51",
"t  c #2A3F5B",
"y  c #323E52",
"u  c #273E61",
"i  c #2B4A51",
"p  c #2C455C",
"a  c #324355",
"s  c #314458",
"d  c #1F4368",
"f  c #1A4E7C",
"g  c #2A4C61",
"h  c #254C6E",
"j  c #2A4B6B",
"k  c #324B62",
"l  c #2A4F73",
"z  c #234E7E",
"x  c #265071",
"c  c #2A557A",
"v  c #335674",
"b  c #0E5288",
"n  c #195584",
"m  c #1B598C",
"M  c #085791",
"N  c #165C93",
"B  c #195D94",
"V  c #155D9A",
"C  c #1A5C9E",
"Z  c #356590",
"A  c #095CA2",
"S  c #105EA2",
"D  c #1B5FA0",
"F  c #085EB1",
"G  c #0B60AB",
"H  c #0F6EAF",
"J  c #1264A5",
"K  c #1961A3",
"L  c #1568A0",
"P  c #1A67A9",
"I  c #1268AF",
"U  c #196AAE",
"Y  c #0F64B0",
"T  c #0C6AB4",
"R  c #0A6CBC",
"E  c #116EB6",
"W  c #1B6DB2",
"Q  c #156CBC",
"!  c #1770B0",
"~  c #1C71BC",
"^  c #2166A1",
"/  c #2C75AA",
"(  c #3675A2",
")  c #3E77AA",
"_  c #2274B3",
"`  c #2D79BB",
"'  c #3277B5",
"]  c #347AB5",
"[  c #096FC3",
"{  c #166EC1",
"}  c #0E73CF",
"|  c #1472C3",
" . c #1C72C2",
".. c #1B7AC5",
"X. c #1871C9",
"o. c #1577D0",
"O. c #1C7DD1",
"+. c #217DC3",
"@. c #2F7DC4",
"#. c #227CCD",
"$. c #2B7FD1",
"%. c #3F84BC",
"&. c #598AB7",
"*. c #2481C6",
"=. c #2D85C7",
"-. c #3183C3",
";. c #3B82C3",
":. c #3382CB",
">. c #398CCD",
",. c #2B84D4",
"<. c #2E89D5",
"1. c #3486D5",
"2. c #358CD3",
"3. c #388FD5",
"4. c #3691D5",
"5. c #4287C3",
"6. c #478EC5",
"7. c #5C9ECC",
"8. c #4295D6",
"9. c #4298D5",
"0. c #4395D8",
"q. c #5194D5",
"w. c #70A1C9",
"e. c #7FA6D2",
"r. c #7AB3E0",
"t. c #83ADD3",
"y. c #89B0D4",
"u. c #92B2D5",
"i. c #9BBDD8",
"p. c #A0BED9",
"a. c #86B8E4",
"s. c #9AC1E4",
"d. c #9FCBEB",
"f. c #A4CFE7",
"g. c #A6CDEA",
"h. c #B5CEE9",
"j. c #B0D0E5",
"k. c #BDD0E3",
"l. c #B3D4EC",
"z. c #BAD4EF",
"x. c #B6DBEE",
"c. c #BBDCEF",
"v. c #B2D7F0",
"b. c #BAD5F1",
"n. c #BAD9F2",
"m. c #C1D7E7",
"M. c #CFDCE9",
"N. c #C5DFF5",
"B. c #C6E0F3",
"V. c #CCE4F2",
"C. c #D4E4F5",
"Z. c #D5EAF5",
"A. c #DDECF5",
"S. c #E4EDF4",
"D. c #E4EFF8",
"F. c #E2F0F6",
"G. c #E4F0F8",
"H. c #EBF4FA",
"J. c #F5F7F7",
"K. c #F1F6FB",
"L. c #F5F9FC",
"P. c #FCFBFC",
"I. c #FFFFFE",
/* pixels */
"            o 5 F X.,.,.4.9.<.} G $               ",
"    . + + % 4 A Q $.a.0.d.x.n.,.E 4 $ # + X       ",
"    2 1 < > M R O.N.H.K.P.I.K.B.:.U A G w 3 3     ",
"    2 3 3 p R o.H.P.I.I.I.I.I.H.n.>.v R a 3 3     ",
"    1 3 e C ..A.P.I.I.I.I.I.I.I.H.m.+.[ Y w 3     ",
"    1 , t | 3.A.I.I.I.I.I.I.I.I.I.G.,.| T y 3     ",
"    < q N ,.n.L.I.I.I.I.I.I.I.I.I.P.l.-.l B w     ",
"    , q ~ 8.A.I.I.I.I.I.I.I.I.I.I.I.C.6.c J 8     ",
"    8 f 2.f.L.I.I.I.I.I.I.I.I.I.I.I.K.V.+.T ,     ",
"    - p >.c.I.I.I.I.I.I.I.I.I.I.I.I.I.V.,.E 0     ",
"    ; G #.V.I.I.I.I.I.I.I.I.I.I.I.I.I.V.=.K 9     ",
"    q S } H.I.I.I.I.I.I.I.I.I.I.I.I.I.V.' k -     ",
"    q m [ L.I.I.I.I.I.I.I.I.I.I.I.I.P.V.] j :     ",
"    8 h Q H.I.I.I.I.I.I.I.I.I.I.I.I.I.V.-.K r     ",
"    9 m { F.I.I.I.I.I.I.I.I.I.I.I.I.I.Z.O.I 0     ",
"    q N ~ A.I.I.I.I.I.I.I.I.I.I.I.I.I.Z...B 7     ",
"    q n _ c.P.I.I.I.I.I.I.I.I.I.I.I.L.v._ l ,     ",
"    8 N ! *.F.I.I.I.I.I.I.I.I.I.I.I.C.<.W j 3     ",
"    , x L ~ k.P.I.I.I.I.I.I.I.I.I.C.u.%.W j 3     ",
"    , g B K ;.V.I.I.I.I.I.I.I.I.J.j.t.( J s 3     ",
"    3 i B H :.d.A.P.I.I.I.I.I.P.C.s.7.P J e 3     ",
"    3 2 x D ~ q.b.J.J.P.I.I.I.V.i.w./ z a 3 3     ",
"    3 3 w r d V ` p.M.S.D.A.h.e.&.Z u 9 3 3 3     ",
"        + @ * b N ) y.l.z.g.r.5.^ b = +           ",
"              O & 6 @.,.,.2.1. .T                 "
};
