/* XPM */
static char *_327e0e586d64472c6ba5c6fead6e0d5FGeYE1cm3RqTnrgP[] = {
/* columns rows colors chars-per-pixel */
"25 25 33 1 ",
"  c #B0B0AE",
". c #B1AFB0",
"X c #B5B5B5",
"o c #B7B9B8",
"O c #BABCBC",
"+ c #BEC2C1",
"@ c #C3C4C4",
"# c #C4C8C7",
"$ c #C6CACA",
"% c #CACDCC",
"& c #CDD1CF",
"* c #CED2D1",
"= c #D2D5D4",
"- c #D4D9D6",
"; c #D5D9D8",
": c #D7DCDB",
"> c #D6DCDC",
", c #D8DDDA",
"< c #D8DCDB",
"1 c #D9DEDD",
"2 c #DAE1DF",
"3 c #DCE2DF",
"4 c #DBE2E1",
"5 c #DCE3E0",
"6 c #DBE5E0",
"7 c #DEE4E2",
"8 c #DEE6E5",
"9 c #DFE8E3",
"0 c #E0E3E2",
"q c #E0E6E3",
"w c #E0E6E4",
"e c #E0E8E2",
"r c #E3E8E4",
/* pixels */
"Xo@*;,::-==*****==*$@+Ooo",
"Xo#=:12:;-======--=&$@+Oo",
"oO%;1532211,,,;;,,;=*%$@O",
"o@=17777555553222222:-*%@",
"@$-2777777775775577742-*%",
"$*;577777qqq7777q7q7772-*",
"*-157778qq77787q77q7772;*",
"=;577778q77qqqreqq77761-=",
":,77777877qq7qqqqq7q75:=*",
":1,777w78q777778777775;=&",
"$*-77qq987qqq88qqqqq751;-",
"@%;57q7w7q7778w7qqqqq5532",
"$=:57qqqqq77qw7q7qqqqq507",
"*-17qqeqq8wq7qqqqreqqq755",
"=;27qqqqqw8qq7qq7qqq77551",
"%=15qqqqqqwqq778qeqq7721-",
"$*>7qqqqqqqeeqeqeqeqq51:=",
"%=157qqqqqqqqqqqqqqq751;=",
"*-157qqwwqqqq7q9qeqq751:=",
"=-15q778wqqqeq7qwqqq751:-",
"%=>3777777qqqq77qwq774>;*",
"@%;4577555570qqqqqq752-*$",
"@$=>55552>1123775532>-&#+",
"oO#=>52,;;--;:5552:-=&$@O",
" .oO153&%&&&*=,452=&$#++o"
};
